public/customer/1.svg

<svg width="250" height="98" viewBox="0 0 250 98" fill="none" xmlns="http://www.w3.org/2000/svg">
<path d="M86.9794 54.7315H79.4967L78.2584 58.3158H74.3015L81.0576 39.4784H85.4452L92.2018 58.3158H88.2177L86.9794 54.7315ZM85.9569 51.7134L83.2383 43.8441L80.5192 51.7134H85.9569Z" fill="white" fill-opacity="0.6"/>
<path d="M107.728 43.386V58.3158H103.933V56.4297C103.448 57.0765 102.811 57.5883 102.022 57.9657C101.25 58.3252 100.406 58.5047 99.4916 58.5047C98.3249 58.5047 97.2931 58.2619 96.3961 57.7768C95.4986 57.2738 94.7898 56.5464 94.2692 55.5939C93.7669 54.6237 93.5159 53.4739 93.5159 52.1446V43.386H97.2842V51.6056C97.2842 52.7915 97.5801 53.7078 98.1723 54.3547C98.7645 54.9832 99.5721 55.2977 100.595 55.2977C101.636 55.2977 102.452 54.9832 103.044 54.3547C103.637 53.7078 103.933 52.7915 103.933 51.6056V43.386H107.728Z" fill="white" fill-opacity="0.6"/>
<path d="M114.757 46.4852V53.7078C114.757 54.2107 114.874 54.5791 115.107 54.8126C115.358 55.0282 115.771 55.136 116.345 55.136H118.095V58.3158H115.726C112.55 58.3158 110.962 56.7709 110.962 53.6806V46.4852H109.185V43.386H110.962V39.694H114.757V43.386H118.095V46.4852H114.757Z" fill="white" fill-opacity="0.6"/>
<path d="M126.35 58.5586C124.915 58.5586 123.623 58.2441 122.474 57.6151C121.326 56.9687 120.419 56.0613 119.756 54.8932C119.11 53.7256 118.787 52.3781 118.787 50.851C118.787 49.3239 119.118 47.9763 119.782 46.8087C120.464 45.6408 121.389 44.7425 122.555 44.1137C123.721 43.4669 125.022 43.1436 126.458 43.1436C127.894 43.1436 129.195 43.4669 130.361 44.1137C131.528 44.7425 132.442 45.6408 133.107 46.8087C133.788 47.9763 134.129 49.3239 134.129 50.851C134.129 52.3781 133.78 53.7256 133.08 54.8932C132.398 56.0613 131.464 56.9687 130.28 57.6151C129.114 58.2441 127.804 58.5586 126.35 58.5586ZM126.35 55.2705C127.032 55.2705 127.669 55.1088 128.261 54.7854C128.872 54.4442 129.356 53.9413 129.715 53.2766C130.074 52.6115 130.253 51.8034 130.253 50.851C130.253 49.4317 129.876 48.3447 129.123 47.5901C128.387 46.8176 127.481 46.4313 126.404 46.4313C125.327 46.4313 124.421 46.8176 123.685 47.5901C122.968 48.3447 122.609 49.4317 122.609 50.851C122.609 52.2703 122.959 53.3661 123.659 54.1391C124.376 54.8932 125.273 55.2705 126.35 55.2705Z" fill="white" fill-opacity="0.6"/>
<path d="M154.336 43.1704C156.167 43.1704 157.638 43.7364 158.75 44.8683C159.881 45.9822 160.447 47.5451 160.447 49.5573V58.3158H156.678V50.0696C156.678 48.9015 156.382 48.0124 155.79 47.4016C155.198 46.7727 154.39 46.4582 153.367 46.4582C152.344 46.4582 151.528 46.7727 150.918 47.4016C150.325 48.0124 150.03 48.9015 150.03 50.0696V58.3158H146.261V50.0696C146.261 48.9015 145.965 48.0124 145.373 47.4016C144.78 46.7727 143.973 46.4582 142.95 46.4582C141.909 46.4582 141.084 46.7727 140.474 47.4016C139.882 48.0124 139.586 48.9015 139.586 50.0696V58.3158H135.817V43.386H139.586V45.1916C140.07 44.5628 140.689 44.0688 141.443 43.7094C142.214 43.3501 143.058 43.1704 143.973 43.1704C145.14 43.1704 146.18 43.422 147.096 43.925C148.011 44.4101 148.72 45.1108 149.222 46.0271C149.706 45.1647 150.406 44.473 151.322 43.952C152.255 43.4309 153.259 43.1704 154.336 43.1704Z" fill="white" fill-opacity="0.6"/>
<path d="M161.977 50.7971C161.977 49.2878 162.273 47.9496 162.865 46.7817C163.475 45.6139 164.292 44.7156 165.315 44.0868C166.355 43.4579 167.513 43.1436 168.787 43.1436C169.899 43.1436 170.868 43.3681 171.694 43.8172C172.537 44.2664 173.21 44.8324 173.713 45.5151V43.3861H177.508V58.3158H173.713V56.133C173.228 56.8337 172.555 57.4178 171.694 57.8846C170.851 58.3341 169.873 58.5586 168.76 58.5586C167.504 58.5586 166.355 58.2352 165.315 57.5884C164.292 56.9415 163.475 56.0341 162.865 54.8665C162.273 53.6807 161.977 52.3242 161.977 50.7971ZM173.713 50.851C173.713 49.9346 173.533 49.1533 173.175 48.5065C172.816 47.8418 172.331 47.3384 171.721 46.9972C171.111 46.638 170.456 46.4583 169.756 46.4583C169.056 46.4583 168.41 46.629 167.818 46.9705C167.226 47.3117 166.741 47.8146 166.364 48.4793C166.006 49.1261 165.826 49.899 165.826 50.7971C165.826 51.6956 166.006 52.4859 166.364 53.1688C166.741 53.8335 167.226 54.3453 167.818 54.7048C168.428 55.0643 169.074 55.2438 169.756 55.2438C170.456 55.2438 171.111 55.0732 171.721 54.7315C172.331 54.3725 172.816 53.8695 173.175 53.2227C173.533 52.5576 173.713 51.7673 173.713 50.851Z" fill="white" fill-opacity="0.6"/>
<path d="M184.5 46.4852V53.7078C184.5 54.2107 184.616 54.5791 184.849 54.8126C185.101 55.0282 185.514 55.136 186.088 55.136H187.837V58.3158H185.469C182.292 58.3158 180.704 56.7709 180.704 53.6806V46.4852H178.927V43.386H180.704V39.694H184.5V43.386H187.837V46.4852H184.5Z" fill="white" fill-opacity="0.6"/>
<path d="M191.382 41.6074C190.718 41.6074 190.162 41.4008 189.713 40.9875C189.283 40.5564 189.067 40.0263 189.067 39.3976C189.067 38.7687 189.283 38.2477 189.713 37.8345C190.162 37.4033 190.718 37.1877 191.382 37.1877C192.046 37.1877 192.594 37.4033 193.024 37.8345C193.473 38.2477 193.697 38.7687 193.697 39.3976C193.697 40.0263 193.473 40.5564 193.024 40.9875C192.594 41.4008 192.046 41.6074 191.382 41.6074ZM193.239 43.386V58.3158H189.471V43.386H193.239Z" fill="white" fill-opacity="0.6"/>
<path d="M202.507 58.5586C201.072 58.5586 199.78 58.2441 198.632 57.6151C197.483 56.9687 196.577 56.0613 195.913 54.8932C195.267 53.7256 194.944 52.3781 194.944 50.851C194.944 49.3239 195.276 47.9763 195.94 46.8087C196.622 45.6408 197.546 44.7425 198.712 44.1137C199.879 43.4669 201.18 43.1436 202.615 43.1436C204.051 43.1436 205.352 43.4669 206.518 44.1137C207.685 44.7425 208.6 45.6408 209.264 46.8087C209.946 47.9763 210.287 49.3239 210.287 50.851C210.287 52.3781 209.937 53.7256 209.237 54.8932C208.555 56.0613 207.622 56.9687 206.438 57.6151C205.271 58.2441 203.961 58.5586 202.507 58.5586ZM202.507 55.2705C203.19 55.2705 203.827 55.1088 204.419 54.7854C205.029 54.4442 205.514 53.9413 205.872 53.2766C206.231 52.6115 206.411 51.8034 206.411 50.851C206.411 49.4317 206.034 48.3447 205.28 47.5901C204.544 46.8176 203.638 46.4313 202.561 46.4313C201.485 46.4313 200.579 46.8176 199.843 47.5901C199.125 48.3447 198.766 49.4317 198.766 50.851C198.766 52.2703 199.116 53.3661 199.816 54.1391C200.534 54.8932 201.431 55.2705 202.507 55.2705Z" fill="white" fill-opacity="0.6"/>
<path d="M220.238 43.1704C222.015 43.1704 223.45 43.7364 224.545 44.8683C225.639 45.9822 226.187 47.5451 226.187 49.5573V58.3158H222.419V50.0696C222.419 48.8837 222.122 47.9763 221.53 47.3477C220.938 46.7008 220.13 46.3774 219.108 46.3774C218.066 46.3774 217.241 46.7008 216.631 47.3477C216.039 47.9763 215.743 48.8837 215.743 50.0696V58.3158H211.974V43.386H215.743V45.2455C216.245 44.5987 216.882 44.0957 217.654 43.7364C218.443 43.3591 219.305 43.1704 220.238 43.1704Z" fill="white" fill-opacity="0.6"/>
<path d="M43.423 42.9948V38.4558C37.894 38.6462 33.4702 43.1937 33.4702 48.7755V49.4983H23.7843V48.7755C23.7843 37.8377 32.544 28.9482 43.423 28.7554V23.8457L60.0234 33.6009L43.423 42.9948Z" fill="white" fill-opacity="0.6"/>
<path d="M51.9326 48.7755V49.4982C51.9326 55.0802 47.5094 59.6272 41.9805 59.818V55.2794L25.3802 64.673L41.9805 74.4285V69.5186C52.8591 69.3255 61.6189 60.4363 61.6189 49.4982V48.7755H51.9326Z" fill="white" fill-opacity="0.6"/>
</svg>

<svg xmlns="http://www.w3.org/2000/svg" width="250" height="98" fill="none"><path fill="#fff" fill-opacity=".6" d="M86.98 54.731h-7.483l-1.239 3.585h-3.956l6.756-18.838h4.387l6.757 18.838h-3.984l-1.239-3.585Zm-1.023-3.018-2.719-7.869-2.719 7.87h5.438ZM107.728 43.386v14.93h-3.795V56.43c-.485.647-1.122 1.158-1.911 1.536a5.921 5.921 0 0 1-2.53.539c-1.167 0-2.199-.243-3.096-.728-.897-.503-1.606-1.23-2.127-2.183-.502-.97-.753-2.12-.753-3.45v-8.758h3.768v8.22c0 1.185.296 2.102.888 2.749.593.628 1.4.943 2.423.943 1.041 0 1.857-.315 2.449-.943.593-.647.889-1.563.889-2.75v-8.219h3.795ZM114.757 46.485v7.223c0 .503.117.871.35 1.105.251.215.664.323 1.238.323h1.75v3.18h-2.369c-3.176 0-4.764-1.545-4.764-4.635v-7.196h-1.777v-3.099h1.777v-3.692h3.795v3.692h3.338v3.1h-3.338ZM126.35 58.559c-1.435 0-2.727-.315-3.876-.944a7.062 7.062 0 0 1-2.718-2.722c-.646-1.167-.969-2.515-.969-4.042 0-1.527.331-2.875.995-4.042a7.02 7.02 0 0 1 2.773-2.695c1.166-.647 2.467-.97 3.903-.97s2.737.323 3.903.97a6.839 6.839 0 0 1 2.746 2.695c.681 1.167 1.022 2.515 1.022 4.042 0 1.527-.349 2.875-1.049 4.042a7.156 7.156 0 0 1-2.8 2.722c-1.166.63-2.476.944-3.93.944Zm0-3.288c.682 0 1.319-.162 1.911-.486.611-.34 1.095-.844 1.454-1.508.359-.666.538-1.474.538-2.426 0-1.42-.377-2.506-1.13-3.26-.736-.773-1.642-1.16-2.719-1.16s-1.983.387-2.719 1.16c-.717.754-1.076 1.84-1.076 3.26 0 1.42.35 2.515 1.05 3.288.717.754 1.614 1.131 2.691 1.131ZM154.336 43.17c1.831 0 3.302.566 4.414 1.698 1.131 1.114 1.697 2.677 1.697 4.69v8.758h-3.769V50.07c0-1.169-.296-2.058-.888-2.668-.592-.63-1.4-.944-2.423-.944-1.023 0-1.839.315-2.449.944-.593.61-.888 1.5-.888 2.668v8.246h-3.769V50.07c0-1.169-.296-2.058-.888-2.668-.593-.63-1.4-.944-2.423-.944-1.041 0-1.866.315-2.476.944-.592.61-.888 1.5-.888 2.668v8.246h-3.769v-14.93h3.769v1.806a5.035 5.035 0 0 1 1.857-1.483 5.917 5.917 0 0 1 2.53-.539c1.167 0 2.207.252 3.123.755a5.103 5.103 0 0 1 2.126 2.102c.484-.862 1.184-1.554 2.1-2.075a6.08 6.08 0 0 1 3.014-.782ZM161.977 50.797c0-1.51.296-2.847.888-4.015.61-1.168 1.427-2.066 2.45-2.695 1.04-.63 2.198-.943 3.472-.943 1.112 0 2.081.224 2.907.673.843.45 1.516 1.015 2.019 1.698v-2.129h3.795v14.93h-3.795v-2.183c-.485.7-1.158 1.285-2.019 1.752-.843.45-1.821.674-2.934.674a6.396 6.396 0 0 1-3.445-.97c-1.023-.648-1.84-1.555-2.45-2.722-.592-1.186-.888-2.543-.888-4.07Zm11.736.054c0-.916-.18-1.698-.538-2.344-.359-.665-.844-1.169-1.454-1.51a3.807 3.807 0 0 0-1.965-.539c-.7 0-1.346.171-1.938.513-.592.34-1.077.844-1.454 1.508-.358.647-.538 1.42-.538 2.318 0 .899.18 1.689.538 2.372.377.665.862 1.176 1.454 1.536.61.36 1.256.539 1.938.539.7 0 1.355-.17 1.965-.513a3.918 3.918 0 0 0 1.454-1.508c.358-.665.538-1.456.538-2.372ZM184.5 46.485v7.223c0 .503.116.871.349 1.105.252.215.665.323 1.239.323h1.749v3.18h-2.368c-3.177 0-4.765-1.545-4.765-4.635v-7.196h-1.777v-3.099h1.777v-3.692h3.796v3.692h3.337v3.1H184.5ZM191.382 41.607c-.664 0-1.22-.206-1.669-.62a2.165 2.165 0 0 1-.646-1.59c0-.628.216-1.15.646-1.563.449-.43 1.005-.646 1.669-.646.664 0 1.212.215 1.642.646.449.414.673.935.673 1.564 0 .628-.224 1.158-.673 1.59-.43.413-.978.62-1.642.62Zm1.857 1.779v14.93h-3.768v-14.93h3.768ZM202.507 58.559c-1.435 0-2.727-.315-3.875-.944a7.065 7.065 0 0 1-2.719-2.722c-.646-1.167-.969-2.515-.969-4.042 0-1.527.332-2.875.996-4.042a7.018 7.018 0 0 1 2.772-2.695c1.167-.647 2.468-.97 3.903-.97 1.436 0 2.737.323 3.903.97a6.833 6.833 0 0 1 2.746 2.695c.682 1.167 1.023 2.515 1.023 4.042 0 1.527-.35 2.875-1.05 4.042a7.154 7.154 0 0 1-2.799 2.722c-1.167.63-2.477.944-3.931.944Zm0-3.288c.683 0 1.32-.162 1.912-.486.61-.34 1.095-.844 1.453-1.508.359-.666.539-1.474.539-2.426 0-1.42-.377-2.506-1.131-3.26-.736-.773-1.642-1.16-2.719-1.16-1.076 0-1.982.387-2.718 1.16-.718.754-1.077 1.84-1.077 3.26 0 1.42.35 2.515 1.05 3.288.718.754 1.615 1.131 2.691 1.131ZM220.238 43.17c1.777 0 3.212.566 4.307 1.698 1.094 1.114 1.642 2.677 1.642 4.69v8.758h-3.768V50.07c0-1.186-.297-2.094-.889-2.722-.592-.647-1.4-.97-2.422-.97-1.042 0-1.867.323-2.477.97-.592.628-.888 1.536-.888 2.722v8.246h-3.769v-14.93h3.769v1.86a5.103 5.103 0 0 1 1.911-1.51 5.914 5.914 0 0 1 2.584-.566ZM43.423 42.995v-4.54c-5.529.191-9.953 4.739-9.953 10.32v.723h-9.686v-.722c0-10.938 8.76-19.828 19.639-20.02v-4.91l16.6 9.755-16.6 9.394ZM51.933 48.776v.722c0 5.582-4.424 10.13-9.953 10.32v-4.539l-16.6 9.394 16.6 9.755v-4.91c10.88-.192 19.639-9.082 19.639-20.02v-.722h-9.686Z"/></svg>
